imgs/USAFlag.svg

<svg width="24" height="18" viewBox="0 0 24 18" fill="none" xmlns="http://www.w3.org/2000/svg">
<path fill-rule="evenodd" clip-rule="evenodd" d="M0 0H24V1.38516H0V0ZM0 2.77031H24V4.15547H0V2.77031ZM0 5.53711H24V6.92578H0V5.53711ZM0 8.30742H24V9.69258H0V8.30742ZM0 11.0777H24V12.4629H0V11.0777ZM0 13.8445H24V15.2297H0V13.8445ZM0 16.6148H24V18H0V16.6148Z" fill="#BD3D44"/>
<path fill-rule="evenodd" clip-rule="evenodd" d="M0 0H13.2916V9.7122H0V0Z" fill="#192F5D"/>
<path fill-rule="evenodd" clip-rule="evenodd" d="M1.10713 0.415771L1.2301 0.79975H1.61952L1.30525 1.03577L1.42481 1.42328L1.10713 1.18373L0.792854 1.41975L0.912414 1.03577L0.594727 0.79975H0.990982L1.10713 0.415771ZM3.3241 0.415771L3.44366 0.79975H3.8365L3.51881 1.03577L3.63837 1.42328L3.3241 1.18373L3.00642 1.41975L3.12598 1.03577L2.8117 0.79975H3.20113L3.3241 0.415771ZM5.53767 0.415771L5.66064 0.79975H6.04665L5.73238 1.03577L5.85194 1.42328L5.53425 1.18373L5.21998 1.41975L5.33954 1.03577L5.02185 0.79975H5.41469L5.53767 0.415771ZM7.75464 0.415771L7.8742 0.79975H8.26704L7.94935 1.03577L8.07233 1.42328L7.75464 1.18373L7.43696 1.41975L7.55993 1.03577L7.24224 0.79975H7.63167L7.75464 0.415771ZM9.9682 0.415771L10.0912 0.79975H10.4806L10.1663 1.03577L10.2859 1.42328L9.9682 1.18373L9.65393 1.41975L9.77349 1.03577L9.45922 0.79975H9.84865L9.9682 0.415771ZM12.1852 0.415771L12.3047 0.79975H12.6976L12.3799 1.03577L12.5029 1.42328L12.1852 1.18373L11.8675 1.41975L11.9905 1.03577L11.6728 0.79975H12.0656L12.1852 0.415771ZM2.21732 1.38805L2.33688 1.77203H2.72972L2.41203 2.00805L2.52818 2.39203L2.22074 2.15601L1.90305 2.39203L2.01578 2.00805L1.70834 1.77203H2.09776L2.21732 1.38805ZM4.43088 1.38805L4.55386 1.77203H4.94328L4.6256 2.00805L4.74857 2.39203L4.43088 2.15601L4.1132 2.39203L4.23617 2.00805L3.91849 1.77203H4.31132L4.43088 1.38805ZM6.64786 1.38805L6.76742 1.77203H7.16026L6.84257 2.00805L6.96213 2.39203L6.64786 2.15601L6.33018 2.39203L6.44974 2.00805L6.13546 1.77203H6.52489L6.64786 1.38805ZM8.86142 1.38805L8.9844 1.77203H9.37382L9.05614 2.00805L9.17911 2.39203L8.86142 2.15601L8.54715 2.39203L8.66671 2.00805L8.34903 1.77203H8.74528L8.86142 1.38805ZM11.0784 1.38805L11.198 1.77203H11.5908L11.2731 2.00805L11.3927 2.39203L11.0784 2.15601L10.7607 2.39203L10.8803 2.00805L10.566 1.77203H10.9554L11.0784 1.38805ZM1.10713 2.3568L1.2301 2.74783H1.61952L1.30525 2.98385L1.42481 3.36783L1.10713 3.12828L0.792854 3.36783L0.912414 2.98033L0.594727 2.7443H0.990982L1.10713 2.3568ZM3.3241 2.3568L3.44366 2.7443H3.8365L3.51881 2.98033L3.63837 3.36431L3.3241 3.12476L3.00642 3.36431L3.12598 2.9768L2.8117 2.74078H3.20113L3.3241 2.3568ZM5.53767 2.3568L5.66064 2.7443H6.04665L5.73238 2.98033L5.85194 3.36431L5.53425 3.12476L5.21998 3.36431L5.33954 2.9768L5.02185 2.74078H5.41469L5.53767 2.3568ZM7.75464 2.3568L7.8742 2.7443H8.26704L7.94935 2.98033L8.07233 3.36431L7.75464 3.12476L7.43696 3.36431L7.55993 2.9768L7.24224 2.74078H7.63167L7.75464 2.3568ZM9.9682 2.3568L10.0912 2.7443H10.4806L10.1663 2.98033L10.2859 3.36431L9.9682 3.12476L9.65393 3.36431L9.77349 2.9768L9.45922 2.74078H9.84865L9.9682 2.3568ZM12.1852 2.3568L12.3047 2.7443H12.6976L12.3799 2.98033L12.5029 3.36431L12.1852 3.12476L11.8675 3.36431L11.9905 2.9768L11.6728 2.74078H12.0656L12.1852 2.3568ZM2.21732 3.32908L2.33688 3.71306H2.72972L2.41203 3.94908L2.53159 4.33658L2.21732 4.09704L1.89963 4.33306L2.01919 3.94908L1.70492 3.71306H2.09435L2.21732 3.32908ZM4.43088 3.32908L4.55386 3.71306H4.94328L4.6256 3.94908L4.74857 4.33658L4.43088 4.09704L4.1132 4.33306L4.23617 3.94908L3.91849 3.71306H4.31132L4.43088 3.32908ZM6.64786 3.32908L6.76742 3.71306H7.16026L6.84257 3.94908L6.96213 4.33658L6.64786 4.09704L6.33018 4.33306L6.44974 3.94908L6.13546 3.71306H6.52489L6.64786 3.32908ZM8.86142 3.32908L8.9844 3.71306H9.37382L9.05955 3.94908L9.17911 4.33658L8.86142 4.09704L8.54715 4.33306L8.66671 3.94908L8.34903 3.71306H8.74528L8.86142 3.32908ZM11.0784 3.32908L11.198 3.71306H11.5908L11.2731 3.94908L11.3927 4.33658L11.0784 4.09704L10.7607 4.33306L10.8803 3.94908L10.566 3.71306H10.9554L11.0784 3.32908ZM1.10713 4.30135L1.2301 4.68533H1.61952L1.30525 4.92136L1.42481 5.30886L1.10713 5.06931L0.792854 5.30534L0.912414 4.92136L0.594727 4.68533H0.990982L1.10713 4.30135ZM3.3241 4.30135L3.44366 4.68533H3.8365L3.51881 4.92136L3.63837 5.30534L3.3241 5.06931L3.00642 5.30534L3.12598 4.92136L2.8117 4.68533H3.20113L3.3241 4.30135ZM5.53767 4.30135L5.66064 4.68533H6.04665L5.73238 4.92136L5.85194 5.30886L5.53425 5.06931L5.21998 5.30534L5.33954 4.92136L5.02185 4.68533H5.41469L5.53767 4.30135ZM7.75464 4.30135L7.8742 4.68533H8.26704L7.94935 4.92136L8.07233 5.30886L7.75464 5.06931L7.43696 5.30534L7.55993 4.92136L7.24224 4.68533H7.63167L7.75464 4.30135ZM9.9682 4.30135L10.0912 4.68533H10.4806L10.1663 4.92136L10.2859 5.30886L9.9682 5.06931L9.65393 5.30534L9.77349 4.92136L9.45922 4.68533H9.84865L9.9682 4.30135ZM12.1852 4.30135L12.3047 4.68533H12.6976L12.3799 4.92136L12.5029 5.30886L12.1852 5.06931L11.8675 5.30534L11.9905 4.92136L11.6728 4.68533H12.0656L12.1852 4.30135ZM2.21732 5.27363L2.33688 5.65761H2.72972L2.41203 5.89363L2.53159 6.27761L2.21732 6.03807L1.89963 6.27761L2.01919 5.89011L1.70492 5.65409H2.09435L2.21732 5.27363ZM4.43088 5.27363L4.55386 5.65761H4.94328L4.6256 5.89363L4.74857 6.27761L4.43088 6.03807L4.1132 6.27761L4.23617 5.89011L3.91849 5.65409H4.31132L4.43088 5.27363ZM6.64786 5.27363L6.76742 5.65761H7.16026L6.84257 5.89363L6.96213 6.27761L6.64786 6.03807L6.33018 6.27761L6.44974 5.89011L6.13546 5.65409H6.52489L6.64786 5.27363ZM8.86142 5.27363L8.9844 5.65761H9.37382L9.05955 5.89363L9.17911 6.27761L8.86142 6.03807L8.54715 6.27761L8.66671 5.89011L8.34903 5.65409H8.74528L8.86142 5.27363ZM11.0784 5.27363L11.198 5.65761H11.5908L11.2731 5.89363L11.3927 6.27761L11.0784 6.03807L10.7607 6.27761L10.8803 5.89011L10.566 5.65409H10.9554L11.0784 5.27363ZM1.10713 6.24238L1.2301 6.62989H1.61952L1.30525 6.86591L1.42481 7.24637L1.10713 7.01034L0.792854 7.24637L0.912414 6.86239L0.594727 6.62636H0.990982L1.10713 6.24238ZM3.3241 6.24238L3.44366 6.62989H3.8365L3.51881 6.86591L3.64179 7.24637L3.3241 7.01034L3.00642 7.24637L3.12939 6.86239L2.8117 6.62636H3.20113L3.3241 6.24238ZM5.53767 6.24238L5.66064 6.62989H6.04665L5.73238 6.86591L5.85194 7.24637L5.53425 7.01034L5.21998 7.24637L5.33954 6.86239L5.02185 6.62636H5.41469L5.53767 6.24238ZM7.75464 6.24238L7.8742 6.62989H8.26704L7.94935 6.86591L8.07233 7.24637L7.75464 7.01034L7.43696 7.24637L7.55993 6.86239L7.24224 6.62636H7.63167L7.75464 6.24238ZM9.9682 6.24238L10.0912 6.62989H10.4806L10.1663 6.86591L10.2859 7.24637L9.9682 7.01034L9.65393 7.24637L9.77349 6.86239L9.45922 6.62636H9.84865L9.9682 6.24238ZM12.1852 6.24238L12.3047 6.62989H12.6976L12.3799 6.86591L12.5029 7.24637L12.1852 7.01034L11.8675 7.24637L11.9905 6.86239L11.6728 6.62636H12.0656L12.1852 6.24238ZM2.21732 7.21466L2.33688 7.59864H2.72972L2.41203 7.83466L2.53159 8.22216L2.21732 7.98262L1.89963 8.21864L2.01919 7.83466L1.70492 7.59864H2.09435L2.21732 7.21466ZM4.43088 7.21466L4.55386 7.59864H4.94328L4.6256 7.83466L4.74857 8.22216L4.43088 7.98262L4.1132 8.21864L4.23617 7.83466L3.91849 7.59864H4.31132L4.43088 7.21466ZM6.64786 7.21466L6.76742 7.59864H7.16026L6.84257 7.83466L6.96213 8.22216L6.64786 7.98262L6.33018 8.21864L6.44974 7.83466L6.13546 7.59864H6.52489L6.64786 7.21466ZM8.86142 7.21466L8.9844 7.59864H9.37382L9.05955 7.83466L9.17911 8.22216L8.86142 7.98262L8.54715 8.21864L8.66671 7.83466L8.34903 7.59864H8.74528L8.86142 7.21466ZM11.0784 7.21466L11.198 7.59864H11.5908L11.2731 7.83466L11.3927 8.22216L11.0784 7.98262L10.7607 8.21864L10.8803 7.83466L10.566 7.59864H10.9554L11.0784 7.21466ZM1.10713 8.18694L1.2301 8.57092H1.61952L1.30525 8.80694L1.42481 9.19092L1.10713 8.9549L0.792854 9.19092L0.912414 8.80342L0.594727 8.56739H0.990982L1.10713 8.18694ZM3.3241 8.18694L3.44366 8.57092H3.8365L3.51881 8.80694L3.64179 9.19092L3.3241 8.9549L3.00642 9.19092L3.12939 8.80342L2.8117 8.56739H3.20113L3.3241 8.18694ZM5.53767 8.18694L5.66064 8.57092H6.04665L5.73921 8.80694L5.85877 9.19092L5.54108 8.9549L5.22681 9.19092L5.34637 8.80342L5.02868 8.56739H5.42152L5.53767 8.18694ZM7.75464 8.18694L7.8742 8.57092H8.26704L7.94935 8.80694L8.07233 9.19092L7.75464 8.9549L7.43696 9.19092L7.55993 8.80342L7.24224 8.56739H7.63167L7.75464 8.18694ZM9.9682 8.18694L10.0912 8.57092H10.4806L10.1663 8.80694L10.2859 9.19092L9.9682 8.9549L9.65393 9.19092L9.77349 8.80342L9.45922 8.56739H9.84865L9.9682 8.18694ZM12.1852 8.18694L12.3047 8.57092H12.6976L12.3799 8.80694L12.5029 9.19092L12.1852 8.9549L11.8675 9.19092L11.9905 8.80342L11.6728 8.56739H12.0656L12.1852 8.18694Z" fill="white"/>
</svg>

<svg width="24" height="18" fill="none" xmlns="http://www.w3.org/2000/svg"><path fill-rule="evenodd" clip-rule="evenodd" d="M0 0h24v1.385H0V0zm0 2.77h24v1.385H0V2.77zm0 2.767h24v1.389H0V5.537zm0 2.77h24v1.386H0V8.307zm0 2.77h24v1.386H0v-1.385zm0 2.768h24v1.385H0v-1.386zm0 2.77h24V18H0v-1.385z" fill="#BD3D44"/><path fill-rule="evenodd" clip-rule="evenodd" d="M0 0h13.292v9.712H0V0z" fill="#192F5D"/><path fill-rule="evenodd" clip-rule="evenodd" d="M1.107.416L1.23.8h.39l-.315.236.12.387-.318-.24-.314.237.12-.384L.594.8H.99l.116-.384zm2.217 0l.12.384h.393l-.318.236.12.387-.315-.24-.318.237.12-.384L2.812.8h.39l.122-.384zm2.214 0L5.66.8h.386l-.315.236.12.387-.318-.24-.314.237.12-.384L5.022.8h.393l.123-.384zm2.217 0l.12.384h.392l-.318.236.123.387-.317-.24-.318.237.123-.384L7.242.8h.39l.123-.384zm2.213 0l.123.384h.39l-.315.236.12.387-.318-.24-.314.237.12-.384L9.458.8h.39l.12-.384zm2.217 0l.12.384h.393l-.318.236.123.387-.318-.24-.318.237.123-.384L11.674.8h.393l.12-.384zm-9.968.972l.12.384h.393l-.318.236.116.384-.307-.236-.318.236.113-.384-.308-.236h.39l.12-.384zm2.214 0l.123.384h.39l-.318.236.123.384-.318-.236-.318.236.123-.384-.318-.236h.393l.12-.384zm2.217 0l.12.384h.392l-.317.236.12.384-.315-.236-.318.236.12-.384-.315-.236h.39l.123-.384zm2.213 0l.123.384h.39l-.318.236.123.384-.318-.236-.314.236.12-.384-.318-.236h.396l.116-.384zm2.217 0l.12.384h.393l-.318.236.12.384-.315-.236-.317.236.12-.384-.315-.236h.39l.122-.384zm-9.97.969l.122.39h.39l-.315.237.12.384-.318-.24-.314.24.12-.388-.318-.236H.99l.116-.387zm2.216 0l.12.387h.393l-.318.236.12.384-.315-.24-.318.24.12-.387-.314-.236h.39l.122-.384zm2.214 0l.123.387h.386l-.315.236.12.384-.318-.24-.314.24.12-.387-.318-.236h.393l.123-.384zm2.217 0l.12.387h.392l-.318.236.123.384-.317-.24-.318.24.123-.387-.318-.236h.39l.123-.384zm2.213 0l.123.387h.39l-.315.236.12.384-.318-.24-.314.24.12-.387-.315-.236h.39l.12-.384zm2.217 0l.12.387h.393l-.318.236.123.384-.318-.24-.318.24.123-.387-.317-.236h.393l.12-.384zm-9.968.972l.12.384h.393l-.318.236.12.388-.315-.24-.317.236.12-.384-.315-.236h.39l.122-.384zm2.214 0l.123.384h.39l-.318.236.123.388-.318-.24-.318.236.123-.384-.318-.236h.393l.12-.384zm2.217 0l.12.384h.392l-.317.236.12.388-.315-.24-.318.236.12-.384-.315-.236h.39l.123-.384zm2.213 0l.123.384h.39l-.314.236.12.388-.319-.24-.314.236.12-.384-.318-.236h.396l.116-.384zm2.217 0l.12.384h.393l-.318.236.12.388-.315-.24-.317.236.12-.384-.315-.236h.39l.122-.384zm-9.97.972l.122.384h.39l-.315.236.12.388-.318-.24-.314.236.12-.384-.318-.236H.99l.116-.384zm2.216 0l.12.384h.393l-.318.236.12.384-.315-.236-.318.236.12-.384-.314-.236h.39l.122-.384zm2.214 0l.123.384h.386l-.315.236.12.388-.318-.24-.314.236.12-.384-.318-.236h.393l.123-.384zm2.217 0l.12.384h.392l-.318.236.123.388-.317-.24-.318.236.123-.384-.318-.236h.39l.123-.384zm2.213 0l.123.384h.39l-.315.236.12.388-.318-.24-.314.236.12-.384-.315-.236h.39l.12-.384zm2.217 0l.12.384h.393l-.318.236.123.388-.318-.24-.318.236.123-.384-.317-.236h.393l.12-.384zm-9.968.973l.12.384h.393l-.318.236.12.384-.315-.24-.317.24.12-.388-.315-.236h.39l.122-.38zm2.214 0l.123.384h.39l-.318.236.123.384-.318-.24-.318.24.123-.388-.318-.236h.393l.12-.38zm2.217 0l.12.384h.392l-.317.236.12.384-.315-.24-.318.24.12-.388-.315-.236h.39l.123-.38zm2.213 0l.123.384h.39l-.314.236.12.384-.319-.24-.314.24.12-.388-.318-.236h.396l.116-.38zm2.217 0l.12.384h.393l-.318.236.12.384-.315-.24-.317.24.12-.388-.315-.236h.39l.122-.38zm-9.97.968l.122.388h.39l-.315.236.12.38-.318-.236-.314.236.12-.384-.318-.236H.99l.116-.384zm2.216 0l.12.388h.393l-.318.236.123.38-.318-.236-.318.236.123-.384-.317-.236h.39l.122-.384zm2.214 0l.123.388h.386l-.315.236.12.38-.318-.236-.314.236.12-.384-.318-.236h.393l.123-.384zm2.217 0l.12.388h.392l-.318.236.123.38-.317-.236-.318.236.123-.384-.318-.236h.39l.123-.384zm2.213 0l.123.388h.39l-.315.236.12.38-.318-.236-.314.236.12-.384-.315-.236h.39l.12-.384zm2.217 0l.12.388h.393l-.318.236.123.38-.318-.236-.318.236.123-.384-.317-.236h.393l.12-.384zm-9.968.973l.12.384h.393l-.318.236.12.387-.315-.24-.317.237.12-.384-.315-.236h.39l.122-.384zm2.214 0l.123.384h.39l-.318.236.123.387-.318-.24-.318.237.123-.384-.318-.236h.393l.12-.384zm2.217 0l.12.384h.392l-.317.236.12.387-.315-.24-.318.237.12-.384-.315-.236h.39l.123-.384zm2.213 0l.123.384h.39l-.314.236.12.387-.319-.24-.314.237.12-.384-.318-.236h.396l.116-.384zm2.217 0l.12.384h.393l-.318.236.12.387-.315-.24-.317.237.12-.384-.315-.236h.39l.122-.384zm-9.97.972l.122.384h.39l-.315.236.12.384-.318-.236-.314.236.12-.388-.318-.236H.99l.116-.38zm2.216 0l.12.384h.393l-.318.236.123.384-.318-.236-.318.236.123-.388-.317-.236h.39l.122-.38zm2.214 0l.123.384h.386l-.308.236.12.384-.318-.236-.314.236.12-.388-.318-.236h.393l.116-.38zm2.217 0l.12.384h.392l-.318.236.123.384-.317-.236-.318.236.123-.388-.318-.236h.39l.123-.38zm2.213 0l.123.384h.39l-.315.236.12.384-.318-.236-.314.236.12-.388-.315-.236h.39l.12-.38zm2.217 0l.12.384h.393l-.318.236.123.384-.318-.236-.318.236.123-.388-.317-.236h.393l.12-.38z" fill="#fff"/></svg>
